!!!!SEGMENT: pl-wnifc--13846--058_anonim--piesni-polskie-i-ruskie-ludu-galicyjskiego-58-na-dorozi-kaluza.krn
!!!kernsource:
!!!cenid: 18xx:3280
!!!COM: Anonim
!!!COM-rismID: pe30004985
!!!CDT:
!!!CNT:
!!!GTL: Pieśni polskie i ruskie ludu galicyjskiego
!!!OTL: 58. Na dorozi kałuża
!!!PDT: 1833
!!!AGN:
!!!SMS-siglum: PL-Wnifc
!!!SMS-shelfmark: 13846
!!!SMS-shelfwork: 058 G
!!!SMS-variant:
!!!SMS-altvar:
!!!NIFC-rismSourceID: 1001036701
!!!NIFC-rismChildID: 1001037066
!!!NIFC-islandoraID: nifc:210326
!!!URL-pdf-islandora: https://repozytorium.nifc.pl/islandora/object/nifc%3A210326/datastream/PDF/view
!!!URL-scan:
!!!ONB-nifc:
!!!OMD: Allegro.
!!!AIN: 1 piano 1 vox
!!!key: g
**kern	**kern	**kern	**text
*part2	*part2	*part1	*part1
*staff3	*staff2	*staff1	*staff1
*I"Fortepian	*I"Fortepian	*I"Głos	*
*Ipiano	*Ipiano	*Ivox	*
*ICklav	*ICklav	*ICvox	*
*IGacmp	*IGacmp	*IGsolo	*
*clefF4	*clefG2	*clefG2	*
*k[b-e-]	*k[b-e-]	*k[b-e-]	*
*g:	*g:	*g:	*
*M2/4	*M2/4	*M2/4	*
=1	=1	=1	=1
!	!	!LO:TX:a:t=D.b.T.6.	!
4GG/ 4G/	8b-\L 8dd\	8dd\	Na
.	8b-\ 8gg\	8gg\	do-
4GG/ 4G/	8b-\ 8dd\	8dd\	-ro-
.	8b-\J 8dd\	8dd\	-zi
=2	=2	=2	=2
4GG/ 4G/	8b-\L 8dd\	8dd\	ka-
.	(16a\L 16cc#X\	(16cc#X\LL	-łu-
.	16b-\JJ) 16dd\	16dd\JJ)	.
4GG/ 4G/	8ccn\L 8ee-X\	(8ee-\L	ża,
.	8b-\J 8dd\	8dd\J)	.
=3	=3	=3	=3
4GG/ 4G/	8b-\L 8dd\	8dd\	ja
.	8b-\ 8gg\	8gg\	ro-
4GG/ 4G/	8b-\ 8dd\	8dd\	-by-
.	8b-\J 8dd\	8dd\	-ty
!!LO:LB:g=original
=4	=4	=4	=4
4GG/ 4G/	8b-\L 8dd\	8dd\	ne
.	(16a\L 16cc#X\	16cc#X\LL	du-
.	16b-\JJ) 16dd\	16dd\JJ	.
4GG/ 4G/	8ccn\L 8ee-X\	(8ee-X\'L	ża
.	8b-\J 8dd\	8dd\'J)	.
=5||	=5||	=5||	=5||
8GG/L	8b-\L 8dd\	8dd\	ko-
8D\	8b-\ 8dd\	8dd\	-by
!	!	!LO:N:vis=8	!
8DD/	8.a\ 8.ccn\	8.ccn\	skry-
8D\J	.	.	.
.	16f#X\Jk 16a\	16a\	-pki,
=6	=6	=6	=6
8GG/L	8g\L 8b-\	8b-\	cym-
8D\	8g\ 8b-\	8b-\	-ba-
8DD/	8.a\ 8.cc\	8.cc\L	-ły,
8D\J	.	.	.
.	16f#X\Jk 16a\	16a\Jk	.
!!LO:PB:g=original
=7	=7	=7	=7
8GG/L	8g/L 8b-/	8b-\	to
8D/J	8d/J 8b-/	8b-\	by
.	(16qcc/LL	(16qcc/LL	.
.	16qb-/JJ)	16qb-/JJ)	.
8DD/L	8.c/L 8.a/	8.a/	niż-
8D\J	.	.	.
.	16A/Jk 16f/	16f#X/	-ki
=8	=8	=8	=8
8GG/L	8B-/ 8g/	8g/	ska-
8D\	8f#X/L 8a/	8a/	-ka-
8DD/	8g/ 8b-/	(8b-\L	-ły,
8D\J	8a/J 8cc/	8cc\J)	.
=9	=9	=9	=9
8GG/L	8b-\L 8dd\	8dd\	ko-
8D/J	8b-\J 8dd\	8dd\	-by
.	(16qee-/LL	.	.
.	16qdd/JJ)	.	.
8DD/L	8.a\L 8.cc\	8.cc\	skry-
8D\J	.	.	.
.	16f#X\Jk 16a\	16a/	-pki
!!LO:LB:g=original
=10	=10	=10	=10
8GG/L	8g\L 8b-\	8b-\	cym-
8D/J	8g\J 8b-\	8b-\	-ba-
.	(32qcc/LLL	.	.
.	32qb-/	.	.
.	32qa/	.	.
.	32qb-/JJJ)	.	.
8DD/L	8.a\L 8.cc\	(8.cc\	-ły
8D\J	.	.	.
.	16f#X\Jk 16a\	16a/)	.
=11	=11	=11	=11
8GG/L	8g/L 8b-/	8b-\	to-
8D\	8d/ 8b-/	8b-\	-by
8DD/	8.c/ 8.a/	8.a/	niż-
8D\J	.	.	.
.	16A/Jk 16f#X/	16f#X/	-ki
=12	=12	=12	=12
*	*	*^	*
8GG/L 8D/	8B-/L 8g/	8g/	8ryy	ska-
8DD/ 8D/	8B-/ 8g/	8g/	8ryy	-ka-
8GG/J 8D/	8B-/J 8g/	8g/	8ryy	-ły.
!	!	!LO:N:cue	!	!
8r	8r	8g/	8r	.
*	*	*v	*v	*
!!LO:LB:g=original
==	==	==	==
*-	*-	*-	*-
!!!system-decoration: s1,{(s2,s3)}
!!!RDF**kern: < = below
!!!RDF**kern: > = above
!!!ENC: Marta Chmielewska
!!!END: 2021-11-10
!!!YEC: Copyright 2022 Narodowy Instytut Fryderyka Chopina (https://polishscores.org)
!!!YEM: License CC-BY-4.0 (https://creativecommons.org/licenses/by/4.0)
